X: 948
T: Swedish Waltz
B: jims roots
M:3/4
L:1/8
R: waltz
Q: 1/4=100
K:Cmaj
V:1 
xef | "C"g2e2c2 | G2E2C2 | "F"FE FG AB | A4 BA | "G"GA Bc de |
d3A AB | "C"cB cd ef | g4 ef | g2e2c2 | G2E2C2 |
"F"FE FG AB | A4 BA | "G"GA Bc de | f2A2B2 | "C"c2 cB cd | c3 :|
|: d ef | "C"gf ed cB | "Am"cB AG AB | "C"c2E3F | G4 ef | "C"gf ed cB |
"Am"c2 B(c c2) | "G"d3 G ce | d4 ef | "C"g2 e(c c2) | "F"d(f f2) f2 |
"C"e(d d2) c2 | "G"A3 B cd | "C"e3 f ec | "G"d2 de dB | "C"c2 cB c2 | c3 :|
% abcbook-tune_id 6298c297a5fa89295c357c1c


% abcbook-boost 0
% abcbook-tablature 
% abcbook-transpose 
% abcbook-lastupdated 1654178455751
% abcbook-soundfonts 
% abcbook-repeats 1


